Pods/ProtonCore-UIFoundations/libraries/UIFoundations/Sources/Assets.xcassets/Images/IconSet/ic-window-image.imageset/ic-window-image.svg

<svg width="24" height="24" viewBox="0 0 24 24" fill="none" xmlns="http://www.w3.org/2000/svg">
<path fill-rule="evenodd" clip-rule="evenodd" d="M4.5 4.5H19.5C20.3284 4.5 21 5.17157 21 6L21 6.75H3V6C3 5.17157 3.67157 4.5 4.5 4.5ZM1.5 8.25V6.75V6C1.5 4.34315 2.84315 3 4.5 3H19.5C21.1569 3 22.5 4.34315 22.5 6V18C22.5 19.6569 21.1569 21 19.5 21H4.5C2.84315 21 1.5 19.6569 1.5 18V8.25ZM3 8.25H21L21 18C21 18.8284 20.3284 19.5 19.5 19.5H4.5C3.67157 19.5 3 18.8284 3 18V8.25ZM17.3353 18.4512C17.8771 18.4512 18.1905 17.8713 17.8727 17.4571L14.15 12.6065C13.9911 12.3994 13.6642 12.3994 13.5052 12.6065L10.798 16.134L9.29285 14.1727C9.1339 13.9656 8.80701 13.9656 8.64806 14.1727L6.12741 17.4571C5.80952 17.8713 6.12296 18.4512 6.66473 18.4512H17.3353ZM10.2 12.4503C10.8628 12.4503 11.4 11.913 11.4 11.2503C11.4 10.5876 10.8628 10.0503 10.2 10.0503C9.53726 10.0503 9 10.5876 9 11.2503C9 11.913 9.53726 12.4503 10.2 12.4503Z" fill="#0C0C14"/>
</svg>

<svg xmlns="http://www.w3.org/2000/svg" width="24" height="24" viewBox="0 0 24 24">
  <g class="ic-window-image">
    <path fill-rule="evenodd" d="M4.5 4.5h15A1.5 1.5 0 0 1 21 6v.75H3V6a1.5 1.5 0 0 1 1.5-1.5Zm-3 3.75V6a3 3 0 0 1 3-3h15a3 3 0 0 1 3 3v12a3 3 0 0 1-3 3h-15a3 3 0 0 1-3-3V8.25Zm1.5 0h18V18a1.5 1.5 0 0 1-1.5 1.5h-15A1.5 1.5 0 0 1 3 18V8.25Zm14.335 10.201c.542 0 .855-.58.538-.994l-3.723-4.85a.412.412 0 0 0-.645 0l-2.707 3.527-1.505-1.961a.412.412 0 0 0-.645 0l-2.52 3.284c-.318.414-.005.994.537.994h10.67Zm-7.135-6a1.2 1.2 0 1 0 0-2.4 1.2 1.2 0 0 0 0 2.4Z" class="Icon"/>
  </g>
</svg>
